X: 11122
T: FYE, GAR RUB HER O'ER WI' STRAE.
O: Old Scottish air.
Q: "Slow."
%R: air, march, reel
B: W. Hamilton "Universal Tune-Book" Vol. 1 Glasgow 1844 p.112 #2
S: http://imslp.org/wiki/Hamilton's_Universal_Tune-Book_(Various)
Z: 2016 John Chambers <jc:trillian.mit.edu>
M: C
L: 1/8
K: Am
% - - - - - - - - - - - - - - - - - - - - - - - - -
|:\
c3B A2e2 | (de)(cd) B2(AG) |\
c3d (e^f g)a | (e>d)(cB) A4 ::\
g2e2 e2(dc) | (Bc)(de) B2(AG) |
(g>a)(gf) e2g2 | (ag)(eg) a3c' |\
g2e2 e2(dc) | (Bc)(de) B2(AG) |\
c3d (e^f)(ga) | (e>d)(cB) A4 :|
% - - - - - - - - - - - - - - - - - - - - - - - - -

